Gurmukhi/0A6A.svg

<svg enable-background="new 0 0 336 592" viewBox="0 0 336 592" xmlns="http://www.w3.org/2000/svg"><path d="m152.01416 266.997131c24.467621 14.023102 17.882965 13.004303 40.577606.045685 8.110108-4.630859 15.373429-10.52298 20.689881-18.494125 8.027237-12.035462 7.168518-23.972428-2.631714-34.573822-3.319031-3.590348-7.235153-6.377762-11.478256-8.745819-1.568116-.875183-2.702301-1.854416-1.842972-3.968048.765411-1.88266 1.639435-3.09137 4.002395-2.8219 16.676163 1.901779 29.929825 9.410629 37.604844 24.591736 7.322891 14.484573 5.676269 28.800446-3.801819 41.934769-7.256256 10.05545-17.342102 16.910492-27.810059 23.224884-1.819031 1.097259-3.922928 1.809082-5.677337 4.128235 8.011688 3.905212 15.628814 8.166107 22.572052 13.556243 16.904006 13.122895 23.716705 33.011048 17.164703 51.829041-4.949829 14.216431-15.353592 23.280884-29.293396 27.974945-28.4151 9.568329-55.489884 6.445709-79.404587-11.981323-23.778183-18.321839-24.625168-48.531677-3.220947-69.683685 6.942459-6.860657 15.13121-11.887818 23.64386-16.549195-.852753-2.486603-3.059601-2.711853-4.741516-3.570495-13.3331-6.806458-25.889901-14.532227-33.868576-27.852539-13.654671-22.796357-2.430741-51.88469 22.64125-58.623734 4.397858-1.182083 8.892426-1.441376 13.34346-.625961 6.223221 1.140121 10.463989 4.859939 12.686951 10.789657 1.236099 3.297303 1.202576 5.260956-3.426834 5.943573-15.049347 2.219025-25.067673 13.982453-24.333298 28.159531.448776 8.663483 5.108673 15.317017 11.251236 21.034882 1.580612 1.471313 3.371292 2.71698 5.353073 4.277465m61.094925 87.567231c7.055985-10.469422 6.564606-22.991089-1.347687-32.898774-7.651748-9.581421-18.280822-14.730804-29.166443-19.491729-1.174301-.513611-2.226821-.365387-3.352706.118988-11.552231 4.969879-22.569199 10.782104-30.998093 20.444488-10.642761 12.200257-10.613876 27.817963-.052765 37.658936 17.306046 16.126007 49.989685 13.464569 64.917694-5.831909z"/></svg>

<svg version="1.1" id="Layer_1" xmlns="http://www.w3.org/2000/svg" xmlns:xlink="http://www.w3.org/1999/xlink" x="0px" y="0px"
	 width="100%" viewBox="0 0 336 592" enable-background="new 0 0 336 592" xml:space="preserve">
<path fill="#000000" opacity="1.000000" stroke="none" 
	d="
M152.014160,266.997131 
	C176.481781,281.020233 169.897125,280.001434 192.591766,267.042816 
	C200.701874,262.411957 207.965195,256.519836 213.281647,248.548691 
	C221.308884,236.513229 220.450165,224.576263 210.649933,213.974869 
	C207.330902,210.384521 203.414780,207.597107 199.171677,205.229050 
	C197.603561,204.353867 196.469376,203.374634 197.328705,201.261002 
	C198.094116,199.378342 198.968140,198.169632 201.331100,198.439102 
	C218.007263,200.340881 231.260925,207.849731 238.935944,223.030838 
	C246.258835,237.515411 244.612213,251.831284 235.134125,264.965607 
	C227.877869,275.021057 217.792023,281.876099 207.324066,288.190491 
	C205.505035,289.287750 203.401138,289.999573 201.646729,292.318726 
	C209.658417,296.223938 217.275543,300.484833 224.218781,305.874969 
	C241.122787,318.997864 247.935486,338.886017 241.383484,357.704010 
	C236.433655,371.920441 226.029892,380.984894 212.090088,385.678955 
	C183.674988,395.247284 156.600204,392.124664 132.685501,373.697632 
	C108.907318,355.375793 108.060333,325.165955 129.464554,304.013947 
	C136.407013,297.153290 144.595764,292.126129 153.108414,287.464752 
	C152.255661,284.978149 150.048813,284.752899 148.366898,283.894257 
	C135.033798,277.087799 122.476997,269.362030 114.498322,256.041718 
	C100.843651,233.245361 112.067581,204.157028 137.139572,197.417984 
	C141.537430,196.235901 146.031998,195.976608 150.483032,196.792023 
	C156.706253,197.932144 160.947021,201.651962 163.169983,207.581680 
	C164.406082,210.878983 164.372559,212.842636 159.743149,213.525253 
	C144.693802,215.744278 134.675476,227.507706 135.409851,241.684784 
	C135.858627,250.348267 140.518524,257.001801 146.661087,262.719666 
	C148.241699,264.190979 150.032379,265.436646 152.014160,266.997131 
M213.109085,354.564362 
	C220.165070,344.094940 219.673691,331.573273 211.761398,321.665588 
	C204.109650,312.084167 193.480576,306.934784 182.594955,302.173859 
	C181.420654,301.660248 180.368134,301.808472 179.242249,302.292847 
	C167.690018,307.262726 156.673050,313.074951 148.244156,322.737335 
	C137.601395,334.937592 137.630280,350.555298 148.191391,360.396271 
	C165.497437,376.522278 198.181076,373.860840 213.109085,354.564362 
z"/>
</svg>
